X: 35918
T: Sandy's New Chanter
R: hornpipe
M: 4/4
K: Fmajor
|:A2 GA A2 GA|AB AB D2 BG|AC FA Ac Bc|G2 EG Gc BG|
A2 GA A2 GA|AB AB D2 BG|AC FA GC EG|EF FE F4:|
|:c2 Ac Fc Ac|AB AB D2 BG|AC FA Ac Bc|G2 EG Gc BG|
c2 Ac Fc Ac|AB AB D2 BG|AC FA GC EG|EF FE F4:|
|:CF AC FA FA|DF BD FB FB|CF AC FA Ac|G2 EG Gc BG|
CF AC FA FA|DF BD FB Bc|AC FA GC EG|EF FE F4:|

